DVA
CUT[Muede kehrt ein Wandersmann zurueck
    nach der Heimat seiner Liebsten Glueck]
REG[Europa, Mitteleuropa, Deutschland, Wuettemberg, Nagold, Egenhausen]
KEY[D1006  08  G 4/4]
MEL[-5-5  3_.21-712  -5__0_
    -71  2_.1-7243  1__0_
    12  355_4321  -6__0
    11-6  -5_.1-7243  1__0_
    12  355_4321  -6__0
    11-6  -5_.1-7265  3__0_ //] >>
FCT[Liebes - Lied]
CMT[Tonlaengen im vorletzten Takt korrigiert; DVA-Signatur A 36 810]
